X:42
T:Soldier's Joy
C:Joe Buchanan's Scottish Tome - Page 173.3
I:173 3
Z:Carl Allison
R:Hornpipe
L:1/8
M:4/4
K:D
FG | AFDF AFDGF | A2 d2 d2 cB | AFDF AFDF | G2 E2 E2 FG |
AFDF AFDF | A2 d2 d2 fg | afdf gece | d2 d2 d2 :|
de | f2 f2 fagf | edcd egfe | f2 f2 fagf | edcB A2 g2 |
fefg fagf | edcd efge | fafd egec | d2 d2 d2 :|

